X: 5
T: Kansas City
R: hornpipe
M: 4/4
L: 1/8
K: Dmaj
AG|:F2 F2 FEFA|FE D2 D2 FA|AB B2 AF F2|FE D2 E2 AG|
F2 F2 FEFA|FE D2 D2 FA|df f2 a3f|gf d2 d2 AG|
F2 F2 FEFA|FE D2 D2 FA|AB B2 AF F2|FEED E2 AG|
F2 F2 FEFA|FE D2 D2 FA|df f2 a3f|gfd2 d2 dA||
|:def2 a2fa|abb2 affa|eff2 affa|fed2 e2ag|
efaf gefd|edB2 BAAF|ABde faba|fed2 d2dA|
def2 a2fa|abb2 affa|ef f2 ef f2|fed2 e2ag|
efaf gefd|edB2 BAAF|ABde faba|fed2 d2 AG||


Tune 8755	Setting 30046

